X: 40742
T: Toss The Fiddles
R: polka
M: 2/4
K: Dmajor
|:F2 EF|D4|AdcA|G4|F2 EF|D4|Addc|d4:|
AB2B|dc2c|AABB|dc2c|AAdd|cd3|(3e/f/g/ fdd|cB3|
AB2B|dc2c|AB2B|dc2c|AA dd|gg fa|ee dd|c d3||

